X:364
T:a Left Turn at Albuquerque
C:Matt Quinn
L:1/8
M:4/4
K:G
g2 gf d2 BB | cd e2 d2 BB | cd e2 d2 BB | c2 A2 A4 |
g2 gf d2 BB | cd e2 d2 BB | cd e2 d2 Ac | B2 A2 G4 :|
A2 AB c2 d2 | g2 a2 g3 d | e2 d2 c2 Bc | d2 B2 A4 |
g2 gf d2 BB | cd e2 d2 BB | cd e2 d2 Ac | B2 A2 G4 :|
